**kern	**kern	**dynam
*part1	*part1	*part1
*staff2	*staff1	*
*I"Piano	*	*
*clefF4	*clefG2	*
*k[b-]	*k[b-]	*
=1	=1	=1
2.BB- 2.B-	16g#XLL	fz
.	16dd	.
.	16g#	.
.	16f	.
.	16d	.
.	16fJJ	.
.	16aLL	.
.	16dd	.
.	16a	.
.	16f	.
.	16d	.
.	16fJJ	.
=	=	=
2.B-	2.d 2.f 2.b- 2.dd	fz
=	=	=
2.Bn 2.d	2.f 2.g#X	fz
=	=	=
*	*^	*
2.c#X; 2.e	(4.a	2.gn;	fz >
.	4.b-;)	.	.
*	*v	*v	*
=	=	=
*^	*	*
4rGG	2.AAA	4r	] pp
[8AA	.	8r	.
4.AA]	.	16B-LL	.
.	.	16c#X	.
.	.	16B-	.
.	.	16A	.
.	.	16G	.
.	.	16AJJ	.
=	=	=	=
4rGG	2.AAA	8B-	.
.	.	8r	.
[8AA	.	8r	.
4.AA]	.	16B-LL	.
.	.	16c#X	.
.	.	16B-	.
.	.	16A	.
.	.	16G	.
.	.	16AJJ	.
=	=	=	=
4rGG	[2.AAA	8B-	.
.	.	8r	.
[8AA	.	8r	.
4.AA_	.	16B-LL	.
.	.	16c#X	.
.	.	16B-	.
.	.	16A	.
.	.	16G	.
.	.	16AJJ	.
*v	*v	*	*
=	=	=
*-	*-	*-
!!!system-decoration: {(s1,s2)}
